svgs/silence.svg

<svg xmlns="http://www.w3.org/2000/svg" viewBox="0 0 192 192"><path d="m141.766 141.189 33.734 14.146V24.067a7.566 7.566 0 0 0-7.563-7.567H57.883a7.563 7.563 0 0 0-7.563 7.567v26.099" fill="none" stroke="#000" stroke-width="12" stroke-linecap="round" stroke-linejoin="round"/><path d="M16.5 36.321v129.892a9.286 9.286 0 0 0 9.239 9.287h106.788a9.286 9.286 0 0 0 9.239-9.287V59.41a9.197 9.197 0 0 0-4.61-8.019 9.192 9.192 0 0 0-4.629-1.225H49.503Zm62.311 40.847a19.451 19.451 0 0 1 11.822 4.079 19.476 19.476 0 0 1 6.903 10.433 19.48 19.48 0 0 1-9.142 21.862l4.555 32.592H65.274l4.298-32.549a19.481 19.481 0 0 1-2.494-32.205 19.456 19.456 0 0 1 11.733-4.212Z" fill="none" stroke="#000" stroke-width="12" stroke-linecap="round" stroke-linejoin="round"/></svg>

<svg
    xmlns="http://www.w3.org/2000/svg"
    viewBox="0 0 192 192"
    id="vector">
    <path
        id="path"
        d="M 141.766 141.189 L 175.5 155.335 L 175.5 24.067 C 175.5 22.061 174.703 20.135 173.285 18.716 C 171.867 17.298 169.942 16.5 167.937 16.5 L 57.883 16.5 C 56.555 16.5 55.251 16.85 54.101 17.514 C 52.952 18.178 51.997 19.133 51.333 20.284 C 50.669 21.434 50.32 22.739 50.32 24.067 L 50.32 50.166"
        fill="none"
        stroke="#000000"
        stroke-width="12"
        stroke-linecap="round"
        stroke-linejoin="round"/>
    <path
        id="path_1"
        d="M 16.5 36.321 L 16.5 166.213 C 16.5 168.668 17.473 171.025 19.203 172.765 C 20.934 174.504 23.286 175.489 25.739 175.5 L 132.527 175.5 C 134.98 175.489 137.332 174.504 139.063 172.765 C 140.794 171.025 141.766 168.668 141.766 166.213 L 141.766 59.41 C 141.774 57.785 141.351 56.187 140.541 54.779 C 139.732 53.371 138.563 52.202 137.156 51.391 C 135.748 50.581 134.151 50.158 132.527 50.166 L 49.503 50.166 Z M 78.811 77.168 C 83.092 77.189 87.249 78.623 90.633 81.247 C 94.018 83.87 96.445 87.538 97.536 91.68 C 98.627 95.822 98.323 100.211 96.671 104.163 C 95.018 108.114 92.108 111.412 88.394 113.542 L 92.949 146.134 L 65.274 146.134 L 69.572 113.585 C 65.86 111.48 62.941 108.211 61.267 104.284 C 59.592 100.358 59.254 95.987 60.304 91.85 C 61.354 87.712 63.734 84.032 67.078 81.38 C 70.421 78.727 74.545 77.247 78.811 77.168 Z"
        fill="none"
        stroke="#000000"
        stroke-width="12"
        stroke-linecap="round"
        stroke-linejoin="round"/>
</svg>
